X: 2067
T: RISE YE LAZY FELLOW
C:
Q: "Reel."
R: Reel.
%R: reel
B: James Kerr "Merry Melodies" v.2 p.10 #67
Z: 2016 John Chambers <jc:trillian.mit.edu>
M: C
L: 1/8
%%slurgraces yes
%%graceslurs yes
K: Am
uc |\
A2(AB) G3uB | cdec A2A,2 |\
A2Ac G2GB | cdec A3 ::\
ug |\
aegd edca | gedB A3g |\
aegd edca |[1 dega A3 :|[2 dega {cB}A3 |]
